Facilitet_punkt_5800_Piktogrammer/Cirkel/SVG/CYKELPARKERING.svg

<svg xmlns="http://www.w3.org/2000/svg" width="5.5mm" height="5.5mm" viewBox="0 0 15.591 15.591">
  <rect width="15.591" height="15.591" rx="7.795" fill="#031E3A"/>
  <g>
    <path d="M12.747,2.392H10.819a.215.215,0,0,0-.215.214V5.123a.215.215,0,0,0,.215.215h.714V7.147a1.011,1.011,0,0,0-.772.881A1.97,1.97,0,0,0,9.493,8L8.434,5.475a.211.211,0,0,0-.044-.418h-1.2a.212.212,0,0,0,0,.423h.791a.165.165,0,0,0,.011.036L8.579,6.91,6.411,9.551,5.074,6.37H5.68a.212.212,0,0,0,0-.423h-1.2a.212.212,0,1,0,0,.423h.142a.215.215,0,0,0,.014.054l.422,1-.52.737a2.054,2.054,0,1,0,1.044,2.006H6.33a.21.21,0,0,0,.181-.076L8.764,7.35l.34.808a2.054,2.054,0,0,0,.986,3.855,2.025,2.025,0,0,0,.654-.117v.218a.237.237,0,0,0,.474,0v-.441a2.05,2.05,0,0,0,0-3.427V8.124a.553.553,0,0,1,1.105,0v3.99a.237.237,0,0,0,.473,0V8.124a1.012,1.012,0,0,0-.789-.977V5.338h.74a.215.215,0,0,0,.215-.215V2.606A.214.214,0,0,0,12.747,2.392Zm-9.206,9.2A1.631,1.631,0,1,1,4.3,8.513l-.93,1.32A.185.185,0,0,0,3.341,10a.181.181,0,0,0,.18.17H5.158A1.63,1.63,0,0,1,3.541,11.59Zm.4-1.842.7-.992a1.623,1.623,0,0,1,.517.992Zm1.642,0a2.05,2.05,0,0,0-.7-1.34l.367-.521.783,1.861ZM10.09,11.59a1.631,1.631,0,0,1-.821-3.039l.587,1.4a.212.212,0,0,0,.39-.164l-.588-1.4a1.62,1.62,0,0,1,1.086.081v2.983A1.62,1.62,0,0,1,10.09,11.59Zm1.631-1.631a1.62,1.62,0,0,1-.5,1.174V8.785A1.623,1.623,0,0,1,11.721,9.959Zm.173-5.9h-.23v.6a.141.141,0,0,1-.14.141H11.34a.141.141,0,0,1-.141-.141V3.093a.14.14,0,0,1,.141-.14h.554a.547.547,0,0,1,.626.557A.553.553,0,0,1,11.894,4.059Z" fill="#fff"/>
    <path d="M11.849,3.327h-.185V3.69h.185c.14,0,.2-.071.2-.18S11.989,3.327,11.849,3.327Z" fill="#fff"/>
  </g>
</svg>

<?xml version="1.0" encoding="UTF-8"?>
<svg xmlns="http://www.w3.org/2000/svg" viewBox="0 0 15.59 15.59">
  <defs>
    <style>
      .cls-1 {
        fill: #071f39;
      }

      .cls-1, .cls-2 {
        stroke-width: 0px;
      }

      .cls-2 {
        fill: #fff;
      }
    </style>
  </defs>
  <g id="Cirkel">
    <rect class="cls-1" x="0" y="0" width="15.59" height="15.59" rx="7.8" ry="7.8"/>
  </g>
  <g id="ICONS">
    <g>
      <path class="cls-2" d="M12.75,2.39h-1.93c-.12,0-.21.1-.21.21v2.52c0,.12.1.21.21.21h.71v1.81c-.42.1-.73.45-.77.88-.21-.07-.43-.12-.67-.12-.21,0-.41.03-.6.09l-1.06-2.52c.1-.02.17-.11.17-.21,0-.12-.09-.21-.21-.21h-1.2c-.12,0-.21.09-.21.21s.09.21.21.21h.79s0,.02.01.04l.59,1.39-2.17,2.64-1.34-3.18h.61c.12,0,.21-.09.21-.21s-.09-.21-.21-.21h-1.2c-.12,0-.21.09-.21.21s.09.21.21.21h.14s0,.04.01.05l.42,1-.52.74c-.3-.16-.64-.26-1-.26-1.13,0-2.05.92-2.05,2.05s.92,2.05,2.05,2.05c1.06,0,1.94-.81,2.04-1.84h.75s0,0,0,0c.07,0,.13-.02.18-.08l2.25-2.74.34.81c-.64.35-1.07,1.02-1.07,1.8,0,1.13.92,2.05,2.05,2.05.23,0,.45-.05.65-.12v.22c0,.13.11.24.24.24s.24-.11.24-.24v-.44c.56-.37.93-1,.93-1.71s-.37-1.35-.93-1.71v-.12c0-.3.25-.55.55-.55s.55.25.55.55v3.99c0,.13.11.24.24.24s.24-.11.24-.24v-3.99c0-.48-.34-.87-.79-.98v-1.81h.74c.12,0,.21-.1.21-.21v-2.52c0-.12-.1-.21-.21-.21ZM3.54,11.59c-.9,0-1.63-.73-1.63-1.63s.73-1.63,1.63-1.63c.27,0,.53.07.75.18l-.93,1.32c-.04.05-.04.11-.02.17,0,.09.08.17.18.17h1.64c-.1.8-.79,1.42-1.62,1.42ZM3.94,9.75l.7-.99c.28.25.47.6.52.99h-1.22ZM5.58,9.75c-.05-.53-.31-1.01-.7-1.34l.37-.52.78,1.86h-.45ZM10.09,11.59c-.9,0-1.63-.73-1.63-1.63,0-.6.33-1.13.81-1.41l.59,1.4c.05.11.17.16.28.11.11-.05.16-.17.11-.28l-.59-1.4c.14-.04.28-.06.43-.06.23,0,.45.05.65.14v2.98c-.2.09-.42.14-.65.14ZM11.72,9.96c0,.46-.19.88-.5,1.17v-2.35c.31.3.5.71.5,1.17ZM11.89,4.06h-.23v.6c0,.08-.06.14-.14.14h-.18c-.08,0-.14-.06-.14-.14v-1.57c0-.08.06-.14.14-.14h.55c.41,0,.63.23.63.56,0,.29-.2.55-.63.55Z"/>
      <path class="cls-2" d="M11.85,3.33h-.18v.36h.18c.14,0,.2-.07.2-.18s-.06-.18-.2-.18Z"/>
    </g>
  </g>
</svg>
